svg/da.svg

<?xml version="1.0" encoding="UTF-8"?>
<svg width="69px" height="80px" viewBox="0 0 69 80" version="1.1" xmlns="http://www.w3.org/2000/svg" xmlns:xlink="http://www.w3.org/1999/xlink">
    <!-- Generator: Sketch 54.1 (76490) - https://sketchapp.com -->
    <title>DA_Alert</title>
    <desc>Created with Sketch.</desc>
    <defs>
        <linearGradient x1="74.9906006%" y1="0%" x2="19.1353629%" y2="100%" id="linearGradient-1">
            <stop stop-color="#FC8722" offset="0%"></stop>
            <stop stop-color="#F57507" offset="100%"></stop>
        </linearGradient>
    </defs>
    <g id="Dashboard" stroke="none" stroke-width="1" fill="none" fill-rule="evenodd">
        <g id="Brand" transform="translate(-536.000000, -275.000000)" fill="#000000" fill-rule="nonzero">
            <g id="Logos" transform="translate(390.000000, 120.000000)">
                <g id="1" transform="translate(0.000000, 120.000000)">
                    <g id="DA_Alert" transform="translate(146.000000, 35.000000)">
                        <path d="M34.8586103,46.5882227 L29.4383109,46.5882227 C29.1227896,46.5896404 28.8214241,46.4709816 28.6091788,46.2617625 C28.3969336,46.0525435 28.2937566,45.7724279 28.325313,45.4910942 L28.8039021,40.6038855 C28.8504221,40.0844231 29.3353656,39.684617 29.9168999,39.6862871 L35.3371993,39.6862871 C35.6527206,39.6848694 35.9540862,39.8035282 36.1663314,40.0127473 C36.3785767,40.2219663 36.4817536,40.5020819 36.4501972,40.7834156 L35.9716081,45.6706244 C35.9250881,46.1900867 35.4401446,46.5898928 34.8586103,46.5882227 Z M35.7273704,37.0196078 L30.2062624,37.0196078 C29.5964177,37.0196078 29.1020408,36.5436108 29.1020408,35.9564386 L30.6037822,19.445421 C30.6711655,18.9085577 31.1463683,18.5059261 31.7080038,18.5098321 L37.2291117,18.5098321 C37.8389565,18.5098321 38.3333333,18.9858292 38.3333333,19.5730013 L36.7874231,36.0946506 C36.71732,36.6114677 36.2684318,37.0031485 35.7273704,37.0196078 Z M68.1907868,17.7655375 C68.7783609,18.4477209 69.0654113,19.3359027 68.9874243,20.2304671 L66.8294442,44.7595227 C66.7602449,45.5618649 66.4022166,46.3125114 65.8210422,46.8737509 L48.1740082,63.9078173 C47.5440361,64.5136721 46.7011436,64.8515656 45.8244317,64.849701 L27.0379034,64.849701 L10.5001116,80 L11.780782,64.8396809 L3.37070981,64.8396809 C2.42614186,64.8404154 1.52467299,64.4469919 0.886144518,63.7553546 C0.247616048,63.0637173 -0.0692823639,62.1374374 0.0127313353,61.2024067 L5.14549723,3.00601995 C5.32162283,1.29571214 6.77326374,-0.00377492304 8.50347571,8.23911697e-06 L51.3303063,8.23911697e-06 C52.3155567,-0.000274507348 53.2515294,0.428127083 53.8916472,1.17235281 L68.1907868,17.7655375 Z M55.1118136,40.0801644 L56.4832402,24.9398854 C56.5364472,24.0422509 56.2238954,23.1611024 55.6160145,22.4949959 L47.548799,13.2364798 C46.9095165,12.5050105 45.982605,12.084699 45.0076261,12.0841753 L19.5958971,12.0841753 C17.8656851,12.0803922 16.4140442,13.3798792 16.2379186,15.090187 L13.2127128,49.1583198 C13.1430685,50.0904539 13.4642119,51.0097453 14.1001037,51.6985265 C14.7359954,52.3873077 15.6300918,52.7843324 16.5706913,52.795594 L41.5588914,52.795594 C42.4258216,52.7976549 43.2601656,52.4674704 43.8882999,51.8737504 L54.1034116,42.2044127 C54.6867718,41.6406314 55.0449815,40.8860452 55.1118136,40.0801644 Z" id="DA_Logo"></path>
                    </g>
                </g>
            </g>
        </g>
    </g>
</svg>

<svg version="1.2" xmlns="http://www.w3.org/2000/svg" viewBox="0 0 69 80" width="69" height="80"><style>.a{fill:#fff}</style><path fill-rule="evenodd" class="a" d="m68.2 17.8c0.6 0.6 0.9 1.5 0.8 2.4l-2.2 24.6c0 0.8-0.4 1.5-1 2.1l-17.6 17c-0.7 0.6-1.5 1-2.4 0.9h-18.8l-16.5 15.2 1.3-15.2h-8.4c-1 0-1.9-0.4-2.5-1-0.7-0.7-1-1.7-0.9-2.6l5.1-58.2c0.2-1.7 1.7-3 3.4-3h42.8c1 0 2 0.4 2.6 1.2zm-13.1 22.3l1.4-15.2c0-0.9-0.3-1.7-0.9-2.4l-8.1-9.3c-0.6-0.7-1.5-1.1-2.5-1.1h-25.4c-1.7 0-3.2 1.3-3.4 3l-3 34.1c-0.1 0.9 0.3 1.8 0.9 2.5 0.6 0.7 1.5 1.1 2.5 1.1h25c0.8 0 1.7-0.3 2.3-0.9l10.2-9.7c0.6-0.6 0.9-1.3 1-2.1zm-20.2 6.5h-5.5c-0.3 0-0.6-0.1-0.8-0.3-0.2-0.2-0.3-0.5-0.3-0.8l0.5-4.9c0.1-0.5 0.5-0.9 1.1-0.9h5.4c0.4 0 0.7 0.1 0.9 0.3 0.2 0.2 0.3 0.5 0.3 0.8l-0.5 4.9c-0.1 0.5-0.6 0.9-1.1 0.9zm0.8-9.6h-5.5c-0.6 0-1.1-0.4-1.1-1l1.5-16.5c0.1-0.6 0.5-1 1.1-1h5.5c0.6 0 1.1 0.5 1.1 1.1l-1.5 16.5c-0.1 0.5-0.5 0.9-1.1 0.9z"/></svg>
